X:76
T:Polska efter Pelle Fors
R:sl\"angpolska
H:Jfr #4 (delarna i omv\"and ordning), #174 (samma andradel)
A:\"Osterg\"otland
B:SvL \"Ogl 348
Z:id:hn-sp-76
M:3/4
L:1/16
K:Dm
A3(^c d2)e2 (cA)ce | e3(f gf)ed (^cd)ef | g2ab (af)df (ab)ag |
(ef)ed (^cd)c=B (AG)^FG | A3(^c d2)e2 (cA)ce | e3(f gf)ed (^cd)ef | 
g2ab (af)df (ab)ag | ecec [d8F8] :||: {fgfe}f2c2 f2"gliss"(a2 c'2)a2 |
a2gf (ec)ef (ga)ge | {fgfe}f2c2 f2"gliss"(a2 c'2)a2 |
a2gf (ec)ef (ga)ge | f2af e2ge d2e2 | (fe)d^c c2d2 [d4F4] :|
<end>
<start>
